X:1
T:Tom Bolynn
M:6/8
L:1/8
K:D
 D| D2 F A2 A| A2 F D2 d| d2 d d2 d| d2 A A2 A| ddd e2 d| ddd A2 G|\
 AAA AAG| F2 D D2||

